Yaru++/actions/16/draw-star.svg

<svg viewBox="0 0 24 24" xmlns="http://www.w3.org/2000/svg">
  <path d="m12 4-2.4726562 5.2675781-5.5273438.8437499 4 4.09961-.9433594 5.789062 4.9433594-2.732422 4.943359 2.732422-.943359-5.789062 4-4.09961-5.527344-.8437499zm0 2 1.853516 3.9492188 4.146484.6347652-3 3.074219.708984 4.341797-3.708984-2.050781-3.7089844 2.050781.7089844-4.341797-3-3.074219 4.146484-.6347652z" fill="#808080"/>
</svg>

<svg xmlns="http://www.w3.org/2000/svg" viewBox="0 0 24 24">
 <defs>
  <style id="current-color-scheme" type="text/css">
   .ColorScheme-Text { color:#808080; }
  </style>
 </defs>
 <path fill="#808080" class="ColorScheme-Text" d="M 12 4 L 9.5273438 9.2675781 L 4 10.111328 L 8 14.210938 L 7.0566406 20 L 12 17.267578 L 16.943359 20 L 16 14.210938 L 20 10.111328 L 14.472656 9.2675781 L 12 4 z M 12 6 L 13.853516 9.9492188 L 18 10.583984 L 15 13.658203 L 15.708984 18 L 12 15.949219 L 8.2910156 18 L 9 13.658203 L 6 10.583984 L 10.146484 9.9492188 L 12 6 z"/>
</svg>
